images/icons/account.svg

<svg width="30" height="30" fill="none" xmlns="http://www.w3.org/2000/svg"><path d="M14 0C6.27 0 0 6.27 0 14c0 3.66 1.44 7.18 4 9.8.33.33.67.64 1.03.94.36.31.73.59 1.13.85a13.97 13.97 0 0015.68 0c.4-.26.77-.54 1.13-.85.36-.3.7-.61 1.03-.94 5.41-5.52 5.32-14.39-.2-19.8-2.62-2.56-6.14-4-9.8-4zm0 26c-2.93.01-5.75-1.06-7.94-3.01.56-4.39 4.57-7.49 8.95-6.93 3.62.46 6.46 3.31 6.93 6.93A11.865 11.865 0 0114 26zm-3-15c0-1.66 1.34-3 3-3s3 1.34 3 3-1.34 3-3 3c-1.65 0-3-1.35-3-3zm12.6 10.2c-.89-3.04-3.17-5.48-6.15-6.58 2-1.91 2.07-5.07.17-7.07s-5.07-2.07-7.07-.17-2.07 5.07-.17 7.07c.05.06.11.11.17.17-2.98 1.1-5.26 3.54-6.15 6.58C.42 15.9 1.5 8.38 6.8 4.4 12.1.42 19.62 1.5 23.6 6.8a12 12 0 010 14.4z" fill="#5326D4"/></svg>

<svg width="30" height="30" viewBox="0 0 30 30" fill="none" xmlns="http://www.w3.org/2000/svg">
<path d="M14 0C6.27 0 0 6.27 0 14C0 17.66 1.44 21.18 4 23.8C4.33 24.13 4.67 24.44 5.03 24.74C5.39 25.05 5.76 25.33 6.16 25.59C10.89 28.8 17.11 28.8 21.84 25.59C22.24 25.33 22.61 25.05 22.97 24.74C23.33 24.44 23.67 24.13 24 23.8C29.41 18.28 29.32 9.41 23.8 4C21.18 1.44 17.66 0 14 0ZM14 26C11.07 26.01 8.25 24.94 6.06 22.99C6.62 18.6 10.63 15.5 15.01 16.06C18.63 16.52 21.47 19.37 21.94 22.99C19.75 24.94 16.93 26.01 14 26ZM11 11C11 9.34 12.34 8 14 8C15.66 8 17 9.34 17 11C17 12.66 15.66 14 14 14C12.35 14 11 12.65 11 11ZM23.6 21.2C22.71 18.16 20.43 15.72 17.45 14.62C19.45 12.71 19.52 9.55 17.62 7.55C15.72 5.55 12.55 5.48 10.55 7.38C8.55 9.28 8.48 12.45 10.38 14.45C10.43 14.51 10.49 14.56 10.55 14.62C7.57 15.72 5.29 18.16 4.4 21.2C0.42 15.9 1.5 8.38 6.8 4.4C12.1 0.42 19.62 1.5 23.6 6.8C26.8 11.07 26.8 16.93 23.6 21.2Z" fill="#5326D4"/>
</svg>
